modules/framework7-icons/icons/book.svg

<?xml version="1.0" encoding="UTF-8"?>
<svg width="50px" height="49px" viewBox="0 0 50 49" version="1.1" xmlns="http://www.w3.org/2000/svg" xmlns:xlink="http://www.w3.org/1999/xlink">
    <!-- Generator: Sketch 40.1 (33804) - http://www.bohemiancoding.com/sketch -->
    <title>book</title>
    <desc>Created with Sketch.</desc>
    <defs></defs>
    <g id="Page-1" stroke="none" stroke-width="1" fill="none" fill-rule="evenodd">
        <g id="book">
            <path d="M12,1 C4,1 1,7 1,7 L1,45.4000244 C1,45.4000244 2,45 5,43.5 C8,42 9,40 15,40 C20.0330984,40 24.999807,45.9998057 25,46 C25.0126431,45.9872806 29.9732098,40 35,40 C41,40 42,42 45,43.5 C48,45 49,45.4000244 49,45.4000244 L49,7 C49,7 46,1 38,1 C30.0016576,1 25.0020721,6.99751384 25.0000006,6.99999923 C24.9997049,6.99964592 19.9997639,1 12,1 Z" id="Combined-Shape" stroke="#DF1C1C" stroke-width="2"></path>
            <path d="M24,7.38138521 C24.1036523,7.49162494 24.1821833,7.58017911 24.2331633,7.6418407 L25,8.55999756 L25.7681697,7.64024626 C25.8186168,7.57924288 25.8967447,7.49117357 26,7.38137015 L26,43.5156304 C25.7021614,43.7962315 25.4154541,44.0796653 25.1408118,44.3632898 C24.7121443,44.8059768 25,44.5 25,44.5 C25,44.5 25.1122455,44.623755 24.8638695,44.3670682 C24.5879384,44.0819043 24.2996475,43.7968065 24,43.514515 L24,7.38138521 Z" id="Combined-Shape" fill="#979797"></path>
        </g>
    </g>
</svg>

<svg width="50" height="49" viewBox="0 0 50 49" xmlns="http://www.w3.org/2000/svg"><g fill="none" fill-rule="evenodd"><path d="M12 1C4 1 1 7 1 7v38.4s1-.4 4-1.9S9 40 15 40c5.033 0 10 6 10 6 .013-.013 4.973-6 10-6 6 0 7 2 10 3.5s4 1.9 4 1.9V7s-3-6-11-6c-7.998 0-12.998 5.998-13 6 0 0-5-6-13-6z" stroke="#DF1C1C" stroke-width="2"/><path d="M24 7.381c.104.11.182.2.233.26L25 8.56l.768-.92c.05-.06.129-.149.232-.259v36.135c-.298.28-.585.564-.86.847-.428.443-.14.137-.14.137s.112.124-.136-.133c-.276-.285-.564-.57-.864-.852V7.38z" fill="#979797"/></g></svg>
